static/img/mobile/spinners.svg

<svg fill="none" height="240" viewBox="0 0 961 240" width="961" xmlns="http://www.w3.org/2000/svg"><path d="m0 0h961v240h-961z" fill="#f1f1f6"/><g clip-rule="evenodd" fill="#0063a3" fill-rule="evenodd"><path d="m387.5 141c11.598 0 21-9.402 21-21s-9.402-21-21-21v3.818c9.489 0 17.182 7.693 17.182 17.182s-7.693 17.182-17.182 17.182-17.182-7.693-17.182-17.182h-3.818c0 11.598 9.402 21 21 21z"/><path d="m428.5 120c0 11.598 9.402 21 21 21s21-9.402 21-21h-3.818c0 9.489-7.693 17.182-17.182 17.182s-17.182-7.693-17.182-17.182 7.693-17.182 17.182-17.182v-3.818c-11.598 0-21 9.402-21 21z"/><path d="m511.5 99c-11.598 0-21 9.402-21 21s9.402 21 21 21v-3.818c-9.489 0-17.182-7.693-17.182-17.182s7.693-17.182 17.182-17.182 17.182 7.693 17.182 17.182h3.818c0-11.598-9.402-21-21-21z"/><path d="m594.5 120c0-11.598-9.402-21-21-21s-21 9.402-21 21h3.818c0-9.489 7.693-17.182 17.182-17.182s17.182 7.693 17.182 17.182-7.693 17.182-17.182 17.182v3.818c11.598 0 21-9.402 21-21z"/></g></svg>

<svg width="961" height="240" viewBox="0 0 961 240" fill="none" xmlns="http://www.w3.org/2000/svg">
<rect width="961" height="240" fill="#F1F1F6"/>
<path fill-rule="evenodd" clip-rule="evenodd" d="M387.5 141C399.098 141 408.5 131.598 408.5 120C408.5 108.402 399.098 99 387.5 99V102.818C396.989 102.818 404.682 110.511 404.682 120C404.682 129.489 396.989 137.182 387.5 137.182C378.011 137.182 370.318 129.489 370.318 120H366.5C366.5 131.598 375.902 141 387.5 141Z" fill="#0063A3"/>
<path fill-rule="evenodd" clip-rule="evenodd" d="M428.5 120C428.5 131.598 437.902 141 449.5 141C461.098 141 470.5 131.598 470.5 120L466.682 120C466.682 129.489 458.989 137.182 449.5 137.182C440.011 137.182 432.318 129.489 432.318 120C432.318 110.511 440.011 102.818 449.5 102.818L449.5 99C437.902 99 428.5 108.402 428.5 120Z" fill="#0063A3"/>
<path fill-rule="evenodd" clip-rule="evenodd" d="M511.5 99C499.902 99 490.5 108.402 490.5 120C490.5 131.598 499.902 141 511.5 141V137.182C502.011 137.182 494.318 129.489 494.318 120C494.318 110.511 502.011 102.818 511.5 102.818C520.989 102.818 528.682 110.511 528.682 120H532.5C532.5 108.402 523.098 99 511.5 99Z" fill="#0063A3"/>
<path fill-rule="evenodd" clip-rule="evenodd" d="M594.5 120C594.5 108.402 585.098 99 573.5 99C561.902 99 552.5 108.402 552.5 120L556.318 120C556.318 110.511 564.011 102.818 573.5 102.818C582.989 102.818 590.682 110.511 590.682 120C590.682 129.489 582.989 137.182 573.5 137.182L573.5 141C585.098 141 594.5 131.598 594.5 120Z" fill="#0063A3"/>
</svg>
